static/fa/svgs/solid/person-rifle.svg

<svg xmlns="http://www.w3.org/2000/svg" viewBox="0 0 576 512"><!--! Font Awesome Free 6.1.1 by @fontawesome - https://fontawesome.com License - https://fontawesome.com/license/free (Icons: CC BY 4.0, Fonts: SIL OFL 1.1, Code: MIT License) Copyright 2022 Fonticons, Inc.--><path d="M265.2 192c25.4 0 49.8 7.1 70.8 19.9V512H144V337.7l-53.56 90.6c-11.23 19.1-35.76 25.4-54.78 14.1-19.02-11.2-25.33-35.7-14.09-54.7L97.7 258.8c24.5-41.4 69-66.8 117.1-66.8h50.4zM320 80c0 44.2-35.8 80-80 80s-80-35.8-80-80c0-44.18 35.8-80 80-80s80 35.82 80 80zm144-64v116.3c9.6 5.5 16 15.9 16 27.7v109.3l16-5.3v-56c0-8.8 7.2-16 16-16h16c8.8 0 16 7.2 16 16v84.5c0 6.9-4.4 13-10.9 15.1L480 325.3V352h48c8.8 0 16 7.2 16 16v16c0 8.8-7.2 16-16 16h-44l23 92.1c2.6 10.1-5.1 19.9-15.5 19.9H432c-8.8 0-16-7.2-16-16v-96h-16c-17.7 0-32-14.3-32-32V224c0-17.7 14.3-32 32-32v-32c0-11.8 6.4-22.2 16-27.7V32c-8.8 0-16-7.16-16-16 0-8.836 7.2-16 16-16h32c8.8 0 16 7.164 16 16z"/></svg>

<svg xmlns="http://www.w3.org/2000/svg" viewBox="0 0 576 512"><!--! Font Awesome Free 6.1.1 by @fontawesome - https://fontawesome.com License - https://fontawesome.com/license/free (Icons: CC BY 4.0, Fonts: SIL OFL 1.1, Code: MIT License) Copyright 2022 Fonticons, Inc. --><path d="M265.2 192C290.6 192 315 199.1 336 211.9V512H144V337.7L90.44 428.3C79.21 447.4 54.68 453.7 35.66 442.4C16.64 431.2 10.33 406.7 21.57 387.7L97.7 258.8C122.2 217.4 166.7 192 214.8 192L265.2 192zM320 80C320 124.2 284.2 160 240 160C195.8 160 160 124.2 160 80C160 35.82 195.8 .0003 240 .0003C284.2 .0003 320 35.82 320 80zM464 16V132.3C473.6 137.8 480 148.2 480 160V269.3L496 264V208C496 199.2 503.2 192 512 192H528C536.8 192 544 199.2 544 208V292.5C544 299.4 539.6 305.5 533.1 307.6L480 325.3V352H528C536.8 352 544 359.2 544 368V384C544 392.8 536.8 400 528 400H484L507 492.1C509.6 502.2 501.9 512 491.5 512H432C423.2 512 416 504.8 416 496V400H400C382.3 400 368 385.7 368 368V224C368 206.3 382.3 192 400 192V160C400 148.2 406.4 137.8 416 132.3V32C407.2 32 400 24.84 400 16C400 7.164 407.2 0 416 0H448C456.8 0 464 7.164 464 16V16z"/></svg>
